X: 67
M: 6/8
L: 1/8
K: G
!segno!G2G- |\
fed d2g | fed d2d- | dBA GFE | D3 !segno!|]
g2b |\
agf ed^c | d3 =c2e | dcB Adc | BAG g2(b |\
a)gf ed^c | d3 gfe | agf ed^c | d3 !segno!|]
d2d def | g3 gfe | dcB Adc | BAG B2c |\
d2d def | g3 bag | fed Ad^c | d3 !segno!|]


